!!!!SEGMENT: pl-kk--kk-i-7--106_gorczycki-grzegorz-gerwazy--stabat-mater.krn
!!!cenid: 16xx:945
!!!COM: Gorczycki, Grzegorz Gerwazy
!!!COM-rismID: pe30009207
!!!CDT: ~1666-1734/04/30
!!!CNT: Polish
!!!OTL: Stabat Mater
!!!PDT:
!!!AGN: Sacred
!!!SMS-siglum: PL-Kk
!!!SMS-shelfmark: Kk.I.7
!!!SMS-shelfwork: 106 W
!!!SMS-variant:
!!!SMS-altvar:
!!!NIFC-rismSourceID: 300258183
!!!NIFC-islandoraID: pl-kk:1956
!!!URL-pdf-islandora: https://repozytorium.nifc.pl/islandora/object/pl-kk%3A1956/datastream/PDF/view
!!!URL-scan: https://polish.musicsources.pl/pl/lokalizacje/galeria/rekopisy/6140 @EN{Scan on Polish Music Sources Website} @PL{Skany w portalu Dziedzictwo Muzyki Polskiej w otwartym dostępie}
!!!ONB-nifc: UWAGA: C (skan 0080, s.152), A (0158, s.136), T(0245, s.152), B(0332, s.148). Następny utwór: Eia Mater
!!!AIN: 1 alto 1 bass 1 soprn 1 tenor
!!!key:
**kern	**fba	**text	**text	**text	**kern	**text	**text	**text	**kern	**text	**text	**text	**kern	**text	**text	**text
*part4	*	*part4	*part4	*part4	*part3	*part3	*part3	*part3	*part2	*part2	*part2	*part2	*part1	*part1	*part1	*part1
*staff4	*	*staff4	*staff4	*staff4	*staff3	*staff3	*staff3	*staff3	*staff2	*staff2	*staff2	*staff2	*staff1	*staff1	*staff1	*staff1
*Ibass	*	*	*	*	*Itenor	*	*	*	*Ialto	*	*	*	*Isoprn	*	*	*
*I"BASSUS.	*	*	*	*	*I"TENOR.	*	*	*	*I"ALTVS.	*	*	*	*I"CANTVS.	*	*	*
*I'B	*	*	*	*	*I'T	*	*	*	*I'A	*	*	*	*I'S	*	*	*
*clefF4	*	*	*	*	*clefC4	*	*	*	*clefC3	*	*	*	*clefC1	*	*	*
*k[b-]	*	*	*	*	*k[b-]	*	*	*	*k[b-]	*	*	*	*k[b-]	*	*	*
*g:	*	*	*	*	*g:	*	*	*	*g:	*	*	*	*g:	*	*	*
*M4/4	*	*	*	*	*M4/4	*	*	*	*M4/4	*	*	*	*M4/4	*	*	*
*met(c)	*	*	*	*	*met(c)	*	*	*	*met(c)	*	*	*	*met(c)	*	*	*
=1	=1	=1	=1	=1	=1	=1	=1	=1	=1	=1	=1	=1	=1	=1	=1	=1
!	!	!	!	!	!	!	!	!	!	!	!	!	!LO:TX:a:i:t=De B. V. M. Dolorosa	!	!	!
!LO:TX:a:i:t=De B. V. M. Dolorosa	!	!	!	!	!LO:TX:a:i:t=De B. V. M Dolorosa.	!	!	!	!LO:TX:a:i:t=De B. V. M. Dolorosa	!	!	!	!LO:TX:t=P:problem=all2/right&colon; global	!	!	!
4G\	.	Sta-	O	Quis	4G/	Sta-	O	Quis	4d\	Sta-	O	Quis	4b-\	Sta-	O	Quis
4G\	.	-bat	quam	est	4G/	-bat	quàm	est	4g\	-bat	quam	est	4dd\	-bat	quam	est
4B-\	5	Ma-	tri-	ho-	4d\	Ma-	tri-	ho-	4fn\	Ma-	tri-	ho-	4b-\	Ma-	tri-	ho-
4B-\	.	-ter	-ſtis	-mo	4d\	-ter	-ſtis	-mo	4f\	-ter	-ſtis	-mo	4b-\	-ter	-ſtis	-mo
=2	=2	=2	=2	=2	=2	=2	=2	=2	=2	=2	=2	=2	=2	=2	=2	=2
4F\	.	do-	et	qui	4c\	do-	et	qui	4f\	do-	et	qui	4a\	do-	et	qui
4F\	.	-lo-	af-	non	4c\	-lo-	af-	non	4f\	-lo-	af-	non	4a\	-lo-	af-	non
*	*	*	*	*	*2\right	*	*	*	*	*	*	*	*	*	*	*
4G\	.	-ro-	-fli-	fle-	2B-\	-ro-	-fli-	fle-	4d\	-ro-	-fli-	fle-	2g/	-ro-	-fli-	fle-
4C#X/	7- 5	.	.	.	.	.	.	.	4en\	.	.	.	.	.	.	.
=3	=3	=3	=3	=3	=3	=3	=3	=3	=3	=3	=3	=3	=3	=3	=3	=3
*	*	*	*	*	*	*	*	*	*2\right	*	*	*	*	*	*	*
2D,</	#	-sa,	-cta	-ret,	2A/	-sa	-cta	-ret,	2d,<\	-sa,	-cta	-ret,	2f#X/	-sa	-cta	-ret,
4A\	#_	jux-	fu-	Chri-	4c#X\	jux-	fu-	X-	4en\	jux-	fu-	Chri-	4a\	jux-	fu-	Chri-
8A\L	.	-ta	-it	-sti	4c#\	-ta	-it	-ti	4e\	-ta	-it	-sti	4a\	-ta	-it	-sti
8G\J	x	.	.	.	.	.	.	.	.	.	.	.	.	.	.	.
=4	=4	=4	=4	=4	=4	=4	=4	=4	=4	=4	=4	=4	=4	=4	=4	=4
(8F\L	6	Cru-	il-	Ma-	4d\	Cru-	il-	Ma-	4d\	cru-	il-	Ma-	4a\	cru-	il-	Ma-
8E\J)	.	.	.	.	.	.	.	.	.	.	.	.	.	.	.	.
4D/	.	-cem	-la	-trem	4f\	-cem	-la	-trem	4d\	-cem	-la	-trem	4a\	-cem	-la	-trem
4A\	#	la-	be-	si	4en\	la-	be-	si	4c#X\	la-	be-	si	4a\	la-	be-	si
4D/	.	-chry-	-ne-	vi-	4d\	-chry-	-ne-	vi-	4d\	-chry-	-ne-	vi-	4a\	-chry-	-ne-	vi-
=5	=5	=5	=5	=5	=5	=5	=5	=5	=5	=5	=5	=5	=5	=5	=5	=5
*	*	*	*	*	*	*	*	*	*	*	*	*	*2\right	*	*	*
4A\	5 4	-mo-	-di-	-de-	2et\	-mo-	-di-	-de-	(4d\	-mo-	-di-	-de-	2a\	-mo-	-di-	-de-
4AA/	3#r	.	.	.	.	.	.	.	4c#X\)	.	.	.	.	.	.	.
2D/	.	-sa	-cta	-ret	2d\	-sa	-cta	-ret,	2d\	-sa	-cta	-ret,	2a\	-sa	-cta	-ret
=6	=6	=6	=6	=6	=6	=6	=6	=6	=6	=6	=6	=6	=6	=6	=6	=6
4BB-X/	5	dum	Ma-	in	4d\	dum	Ma-	in	4fn\	dum	Ma-	in	4b-\	dum	Ma-	in
4BB-/	.	pen-	-ter	tan-	4d\	pen-	-ter	tan-	4f\	pen-	-ter	tan-	4b-\	pen-	-ter	tan-
4F\	.	-de-	u-	-to	4cn\	-de-	U-	-to	4.f\	-de-	U-	-to	4a\	-de-	U-	-to
4F\	.	-bat	-ni-	sup-	4A/	-bat	-ni-	sup-	.	.	.	.	4a\	-bat	-ni-	sup-
.	.	.	.	.	.	.	.	.	8e-X\	-bat	-ni-	sup-	.	.	.	.
=7	=7	=7	=7	=7	=7	=7	=7	=7	=7	=7	=7	=7	=7	=7	=7	=7
*	*	*ij	*	*	*	*	*	*	*	*	*	*	*	*	*	*
4G\	.	dum	-ge-	-pli-	4B-\	Fi-	-ge-	-pli-	4d\	Fi-	-ge-	-pli-	2g/	Fi-	-ge-	-pli-
4C/	6	pe-	.	.	8c\L	.	.	.	4e-X\	.	.	.	.	.	.	.
.	5	.	.	.	8B-\J	.	.	.	.	.	.	.	.	.	.	.
4D/	#	-de-	.	.	[2A/	.	.	.	[<2d\	.	.	.	4f#X/	.	.	.
*custos:D	*	*	*	*	*	*	*	*	*	*	*	*	*	*	*	*
4GG/	.	-bat	.	.	.	.	.	.	.	.	.	.	[4g/	.	.	.
*	*	*Xij	*	*	*	*	*	*	*	*	*	*	*	*	*	*
=8	=8	=8	=8	=8	=8	=8	=8	=8	=8	=8	=8	=8	=8	=8	=8	=8
8D/	4	Fi-	.	.	4.A/]	.	.	.	4.d\]	.	.	.	4.g/]	.	.	.
!	!LO:SIC:t=3# powinno byc nad 4D	!	!	!	!	!	!	!	!	!	!	!	!	!	!	!
8D/	3#r	-li-	-ni-	-ci-	.	.	.	.	.	.	.	.	.	.	.	.
4D,</	.	-us	-ti	-o,	.	.	.	.	.	.	.	.	.	.	.	.
.	.	.	.	.	8A/	-li-	-ni-	ci-	8d\	-li-	-ni-	ci-	8f#X/	-li-	-ni-	ci-
4.G\	.	dum	Ma-	in	4G/	-us	-ti	-o	4d\	-us.	-ti,	-o.	4g/	-us.	-ti	-o,
.	.	.	.	.	4r	.	.	.	4r	.	.	.	4r	.	.	.
8G\	.	pen-	-ter	tan-	.	.	.	.	.	.	.	.	.	.	.	.
=9	=9	=9	=9	=9	=9	=9	=9	=9	=9	=9	=9	=9	=9	=9	=9	=9
*	*	*	*	*	*	*	*	*	*custos:g	*	*	*	*	*	*	*
4Fn\	6	-de-	u-	-to	4.d\	dum	Ma-	in	1r	.	.	.	1rdd	.	.	.
4D,<\	.	-bat	-ni-	sup-	.	.	.	.	.	.	.	.	.	.	.	.
.	.	.	.	.	8d\	pen-	-ter	tan-	.	.	.	.	.	.	.	.
4E-X\	6	Fi-	-ge-	-pli-	4c\	-de-	u-	-to	.	.	.	.	.	.	.	.
*	*	*	*	*	*custos:B-	*	*	*	*	*	*	*	*	*	*	*
4F\	.	.	.	.	4A\	-bat	-ni-	sup-	.	.	.	.	.	.	.	.
=10	=10	=10	=10	=10	=10	=10	=10	=10	=10	=10	=10	=10	=10	=10	=10	=10
!	!	!	!	!	!LO:LB:g=original	!	!	!	!LO:LB:g=original	!	!	!	!	!	!	!
4G\	.	.	.	.	4B-\	dum	-ge-	-pli-	4.g\	dum	Ma-	in	2r	.	.	.
4E-X\	6	-li-	-ni-	-ci-	4c\	pen-	.	.	.	.	.	.	.	.	.	.
.	.	.	.	.	.	.	.	.	8g\	pen-	-ter	tan-	.	.	.	.
4D/	.	-us.	-ti!	-o,	(4d\	-de-	.	.	4fn\	-de-	U-	-to	4.dd\	dum	Ma-	in
4r	.	.	.	.	4B-\)	.	-ni-	-ci-	4d\	-bat	-ni-	sup-	.	.	.	.
*	*	*	*	*	*	*	*	*	*	*	*	*	*custos:b	*	*	*
.	.	.	.	.	.	.	.	.	.	.	.	.	8dd\	pen-	-ter	tan-
=11	=11	=11	=11	=11	=11	=11	=11	=11	=11	=11	=11	=11	=11	=11	=11	=11
!	!	!	!	!	!	!	!	!	!	!	!	!	!LO:LB:g=original	!	!	!
0r	.	.	.	.	2A,</	-bat,	-ti	-o	4en\	dum	-ge-	-pli-	4ccn\	-de-	U-	-to
.	.	.	.	.	.	.	.	.	4f\	-pen-	.	.	4a\	.	-ni-	sup-
*	*	*	*	*	*	*ij	*	*	*	*	*	*	*	*	*	*
.	.	.	.	.	4G/	dum	Ma-	in	4g\	-de-	.	.	4b-\	.	-ge-	-pli-
.	.	.	.	.	4A/	pen-	-ter	tan-	8f\L	.	-[[ni-	.	4cc\	.	.	.
.	.	.	.	.	.	.	.	.	8e\J	.	-ti]]-	.	.	.	.	.
=12	=12	=12	=12	=12	=12	=12	=12	=12	=12	=12	=12	=12	=12	=12	=12	=12
.	.	.	.	.	4.B-\	-de-	u-	-to	4d,<\	-bat	.	.	4dd\	.	.	.
.	.	.	.	.	.	.	.	.	2g\	Fi-	.	.	4b-\	-bat	.	.
.	.	.	.	.	8c\	-bat	-ni-	sup-	.	.	.	.	.	.	.	.
*	*	*	*	*	*	*Xij	*	*	*	*	*	*	*	*	*	*
.	.	.	.	.	4.d\	Fi-	-ge-	-pli-	.	.	.	.	4.a\	Fi-	.	.
.	.	.	.	.	.	.	.	.	4f#X\	-li-	-ni-	-ci-	.	.	.	.
.	.	.	.	.	8D/	-li-	-ni-	-ci-	.	.	.	.	8a\	-li-	-ni-	-ci-
=13	=13	=13	=13	=13	=13	=13	=13	=13	=13	=13	=13	=13	=13	=13	=13	=13
2r	.	.	.	.	2G,</	-us	-ti,	-o,	2g,<\	-us	-ti,	-o	2g/	-us	-ti	-o
4BB-/	.	dum	Ma-	in	4d\	dum	Ma-	in	4fn\	dum	Ma-	in	4b-\	dum	Ma-	in
4BB-/	.	pen-	-ter	tan-	4d\	pen-	-ter	tan-	4f\	pen-	-ter	tan-	4b-\	pen-	-ter	tan-
=14	=14	=14	=14	=14	=14	=14	=14	=14	=14	=14	=14	=14	=14	=14	=14	=14
4F\	.	-de-	u-	-to	4c\	-de-	u-	-to	(4.f\	-de-	u-	-to	4a\	-de-	u-	-to
4F\	.	.	.	.	4A,<\	-bat	-ni-	sup-	.	.	.	.	4a\	-bat	-ni-	sup-
.	.	.	.	.	.	.	.	.	8e-X\)	.	.	.	.	.	.	.
4G\	.	.	.	.	4B-\	Fi-	-ge-	-pli-	4d\	.	.	.	[2g/	Fi-	-ge-	-pli-
4C/	6 5	-bat	-ni-	sup-	4c\	.	.	.	4e-X\	-bat	-ni-	sup-	.	.	.	.
=15	=15	=15	=15	=15	=15	=15	=15	=15	=15	=15	=15	=15	=15	=15	=15	=15
4.D/	4	Fi-	-ge-	-pli-	4.A/	.	.	.	4.d\	Fi-	-ge-	-pli-	4.g/]	.	.	.
!	!LO:SIC:3#r	!	!	!	!	!	!	!	!	!	!	!	!	!	!	!
8D/	3	li-	ni-	ci-	8A/	li-	ni-	ci-	8d\	li-	ni-	ci-	8f#X/	li-	ni-	ci-
2GG;/	.	-us.	-ti.	-o.	2Bn\	-us.	-ti.	-o.	2d\	-us.	-ti.	-o.	2g/	-us.	-ti.	-o.
=16||	=16||	=16||	=16||	=16||	=16||	=16||	=16||	=16||	=16||	=16||	=16||	=16||	=16||	=16||	=16||	=16||
*M4/4	*	*	*	*	*M4/4	*	*	*	*M4/4	*	*	*	*M4/4	*	*	*
*met(c)	*	*	*	*	*met(c)	*	*	*	*met(c)	*	*	*	*met(c)	*	*	*
4G\	.	Cu-	Quae	Quis	4B-X\	Cu-	Quae	Quis	4d\	Cu-	Quae	Quis	4g/	Cu-	Quae	Quis
4G\	.	-jus	mae-	non	4d\	-jus	mae-	non	4g\	-jus	mae-	non	4g/	-jus	mae-	non
4B-\	.	a-	-re-	poſ-	4B-\	a-	-re-	poſ-	4fn\	a-	-re-	poſ-	4dd\	a-	-re-	poſ-
4B-\	.	-ni-	-bat	-set	4B-\	-ni-	-bat	-set	4f\	-ni-	-bat	-set	4dd\	-ni-	-bat	-set
=17	=17	=17	=17	=17	=17	=17	=17	=17	=17	=17	=17	=17	=17	=17	=17	=17
4F\	.	-mam	et	con-	4A/	-mam	et	con-	4f\	-mam	et	con-	4cc\	-mam	et	con-
4F\	.	ge-	do-	-tri-	4A/	ge-	do-	-tri-	4f\	ge-	do-	-tri-	4cc\	ge-	do-	-tri-
4G\	.	-men-	-le-	-ſta-	2G/	-men-	-le-	-ſta-	4d\	-men-	-le-	-sta-	2b-XT\	-men-	-le-	-sta-
*custos:D	*	*	*	*	*	*	*	*	*	*	*	*	*	*	*	*
4C#X/	7- 5	.	.	.	.	.	.	.	4en\	.	.	.	.	.	.	.
=18	=18	=18	=18	=18	=18	=18	=18	=18	=18	=18	=18	=18	=18	=18	=18	=18
*	*	*	*	*	*custos:A	*	*	*	*custos:en	*	*	*	*	*	*	*
2D,</	.	-tem,	-bat	-vi,	2F#X/	-tem	-bat	-vi	2d,<\	-tem	-bat,	-vi	2a\	-tem	-bat	-vi
!	!	!	!	!	!LO:LB:g=original	!	!	!	!LO:LB:g=original	!	!	!	!	!	!	!
4A\	#	con-	pi-	Chri-	4A/	con-	pi-	X-	4en\	con-	pi-	Chri-	4cc#X\	con-	et	Chri-
*	*	*	*	*	*	*	*	*	*	*	*	*	*custos:dd	*	*	*
8A\L	.	-tri-	-a	-sti	4A/	-tri-	-a	-ti	4e\	-tri-	-a	-sti	4cc#\	-tri-	tre-	-sti
8G\J	.	.	.	.	.	.	.	.	.	.	.	.	.	.	.	.
=19	=19	=19	=19	=19	=19	=19	=19	=19	=19	=19	=19	=19	=19	=19	=19	=19
!	!	!	!	!	!	!	!	!	!	!	!	!	!LO:LB:g=original	!	!	!
(8F\L	6	-stan-	Ma-	Ma-	4A/	-ſtan-	Ma-	Ma-	4d\	-ſtan-	Ma-	Ma-	4dd\	-stan-	-me-	Ma-
8E\J)	.	.	.	.	.	.	.	.	.	.	.	.	.	.	.	.
4D/	.	-tem	-ter	-trem	4A/	-tem	-ter	-trem	4d\	-tem	-ter	-trem	4ff\	-tem	-bat	-trem
4A\	#	et	cùm	con-	4A/	et	cùm	con-	4c#X/	et	cùm	con-	4een\	et	cum	con-
4D/	.	do-	vi-	-tem-	4A/	do-	vi-	-tem-	4d\	do-	vi-	-tem-	4dd\	do-	vi-	-tem-
=20	=20	=20	=20	=20	=20	=20	=20	=20	=20	=20	=20	=20	=20	=20	=20	=20
4A\	5 4	-len-	-de-	-pla-	2A/	-len-	-de-	-pla-	(4d\	-len-	-de-	-pla-	2eet\	-len-	-de-	-pla-
4AA/	3#	.	.	.	.	.	.	.	4c#X\)	.	.	.	.	.	.	.
2D/	.	-tem	-bat	-vi	2A/	-tem	-bat	-vi	2d\	-tem	-bat	-vi	2dd\	-tem	-bat	-vi
=21	=21	=21	=21	=21	=21	=21	=21	=21	=21	=21	=21	=21	=21	=21	=21	=21
4BB-/	5	per-	Na-	do-	4B-\	per-	Na-	do-	4fn\	per-	Na-	do-	4dd\	per-	Na-	do-
4BB-/	.	-tran-	-ti	-len-	4B-\	-tran-	-ti	-len-	4f\	-tran-	-ti	-len-	4dd\	-tran-	-ti	-len-
4F\	.	-ſi-	pae	-tem	4A\	-ſi-	pae	-tem	4.f\	-ſi-	pae	-tem	4ccn\	-ſi-	pae	-tem
4F\	.	-vit	nas	cum	4A\	-vit	nas	cum	.	.	.	.	4a\	-vit	nas	cum
.	.	.	.	.	.	.	.	.	8e-X\	.	.	.	.	.	.	.
=22	=22	=22	=22	=22	=22	=22	=22	=22	=22	=22	=22	=22	=22	=22	=22	=22
4G\	.	gla-	in-	Fi-	(8G/L	gla-	in-	Fi-	4d\	-vit	nas	cum	(8b-\L	gla-	in-	Fi-
.	.	.	.	.	8B-/J)	.	.	.	.	.	.	.	8dd\J)	.	.	.
4C/	6	.	.	.	8A/L	.	.	.	4e-X\	gla-	in-	Fi-	(8cc\L	.	.	.
.	5	.	.	.	8G/J	.	.	.	.	.	.	.	8b-\J)	.	.	.
4.D/	5 4	.	.	.	4.G/	.	.	.	4.d\	.	.	.	8a\	.	.	.
.	.	.	.	.	.	.	.	.	.	.	.	.	8a\	-di-	-cly-	-li-
.	.	.	.	.	.	.	.	.	.	.	.	.	4a\	-us,	-ti,	-o
8D/	3#	-di-	-cly-	-li-	8F#X/	-di-	-cly-	-li-	8d\	-di-	-cly-	-li-	.	.	.	.
=23	=23	=23	=23	=23	=23	=23	=23	=23	=23	=23	=23	=23	=23	=23	=23	=23
4GG/	.	-us,	-ti;	-o,	4G/	-us,	-ti	-o,	4d\	-us,	-ti	-o.	4dd\	per-	Na-	do-
!	!	!	!	!	!	!	!	!	!	!	!	!	!LO:TX:t=P:problem=♭ above	!	!	!
4r	.	.	.	.	4r	.	.	.	4r	.	.	.	4b-X\	-tran-	-ti	-len-
2r	.	.	.	.	2r	.	.	.	4g\	per-	Na-	do-	4b-\	-ſi-	pae-	-tem
.	.	.	.	.	.	.	.	.	4e-X\	-tran-	-ti	-len-	4cc\	-vit	-nas	cum
=24	=24	=24	=24	=24	=24	=24	=24	=24	=24	=24	=24	=24	=24	=24	=24	=24
2r	.	.	.	.	4d\	per-	Na-	do-	4f#X\	-ſi-	pae-	-tem	4a\	gla-	Na-	Fi-
.	.	.	.	.	4B-\	-tran-	-ti	-len-	4g,<\	-vit	-nas	cum	4b-\	.	-ti	.
*	*	*	*	*	*	*	*	*	*	*ij	*ij	*	*	*	*	*
4G\	.	per-	Na-	do-	4B-\	-ſi-	pae-	-tem	4d\	per-	Na-	Fi-	4g\	.	pae-	.
4E-X\	6	-tran-	-ti	-len-	4c\	-vit	-nas	cum	4G/	-tran-	-ti	.	4cc\	.	.	.
=25	=25	=25	=25	=25	=25	=25	=25	=25	=25	=25	=25	=25	=25	=25	=25	=25
*	*	*	*	*	*	*ij	*ij	*	*	*	*	*	*	*	*	*
4D/	#	-ſi-	pae-	-tem	4d\	per-	Na-	Fi-	4A/	-ſi-	pae-	.	4f#X/	.	.	.
4BB-,</	6	-vit	-nas	cum	4d\	-tran-	-ti	-li-	4d\	-vit	-nas	.	4g/	.	.	.
*	*	*	*	*	*	*	*	*	*	*Xij	*Xij	*	*	*	*	*
4AA/	.	gla-	in-	Fi-	4c\	-ſi-	pae-	-o,	4en\	gla-	in-	.	4a\	.	.	.
4D/	#	.	.	.	4A/	-vit	-nas	cum	4d\	.	.	.	4f#X/	.	-nas	.
*	*	*	*	*	*	*Xij	*Xij	*	*	*	*	*	*	*	*	*
=26	=26	=26	=26	=26	=26	=26	=26	=26	=26	=26	=26	=26	=26	=26	=26	=26
4GG/	.	.	.	.	(8B-\L	gla-	in-	Fi-	4d\	.	.	.	8g\L	.	in-	.
.	.	.	.	.	8d\)	.	.	.	.	.	.	.	8b-\	.	.	.
4C/	6	.	.	.	8c\	.	.	.	4e-X\	.	.	.	8a\	.	.	.
.	5	.	.	.	8B-\J	.	.	.	.	.	.	.	8g\J	.	.	.
4D/	#	.	.	.	4A\	.	.	.	2d\	.	.	.	4f#X/	.	.	.
4GG/	.	.	.	.	4B-\	.	.	.	.	.	.	.	[4g/	.	.	.
=27	=27	=27	=27	=27	=27	=27	=27	=27	=27	=27	=27	=27	=27	=27	=27	=27
4.D/	5 4	.	.	.	4.A\	.	.	.	4.d\	.	.	.	4.g/]	.	.	.
8D/	3#	-di-	-cly-	-li-	8A\	-di-	-cly-	-li-	8d\	-di-	-cly-	-li-	8f#X/	-di-	-cly-	-li-
2GG/	.	-us.	-ti.	-o.	2Bn\	-(us).	-ti.	-o.	2d\	-us.	-ti.	-o.	2g/	-us.	-ti.	-o.
==	==	==	==	==	==	==	==	==	==	==	==	==	==	==	==	==
*-	*-	*-	*-	*-	*-	*-	*-	*-	*-	*-	*-	*-	*-	*-	*-	*-
!!!RDF**kern: > = above
!!!RDF**kern: < = below
!!!system-decoration: [(s1,s2,s3,s4)]
!!!EED: Andrzej Borzym
!!!EEV: 2021-03-22
!!!ENC: Krzysztof Stępień
!!!END: 2021-03-04
